X:183
T:Kitty O'Hara
N:"Tenderly"
B:O'Neill's 183
Z:Transcribed by henrik.norbeck@mailbox.swipnet.se
M:3/4
L:1/8
K:G
AGE|D z E z G/4A/4B3/2|c z B z A z|G2 GABG|E2 FED2 D2|
E2 G2 G/4A/4B3/2|c z c z dB|G2 GA Bc|A2 G z||
DE|F2 FA GF|E2 E2 DE|G2 GABG|E2 D z ~Bc|
[1 d z d2 ed|c z c2 dc|B2 GA BG|A2 G z:|
[2 d z d2 ed|c z DFAc2 dc|B2 GA BG|A2 G z||
